X: 1
T:Jean's Fancy
M:6/8
L:1/8
Q:80
C:John Walsh
S:Jig
K:HP
|: a|
c{g}c{G}c{gBd}B2{G}A|
c{gcecG}c2{g}BeA|
{g}Ac{GdG}e{g}fga|  !
{fg}fec{gef}ec{d}Ac{g}c{G}c{gBd}B2{G}A|
c{gcecG}c2{g}BeA|
{g}Ac{GdG}e{g}fga|  !
{ef}ecB{gAGAG}A2:| |:
e|
{ag}a2e{g}fae|
{gfg}feafae|  !
c{gcecG}c2{G}c{gcecG}c2|
{g}cd{e}Bc{gcecG}c2{ag}a2e{g}fae|
{gfg}feafae|1  !
c{gcecG}c2{g}cac|
{g}dcB{gAGAG}A2:|
